;FLAVOR:Marlin
;TIME:11779
;Filament used: 12.6018m
;Layer height: 0.28
;MINX:61.5
;MINY:27.75
;MINZ:0.28
;MAXX:158.5
;MAXY:192.25
;MAXZ:3.92
;Generated with Cura_SteamEngine 5.0.0
M140 S60
M105
M190 S60
M104 S200
M105
M109 S200
M82 ;absolute extrusion mode
; Ender 3 Custom Start G-code
G28;
G29;
G92 E0 ; Reset Extruder
G28 ; Home all axes
G1 Z2.0 F3000 ; Move Z Axis up little to prevent scratching of Heat Bed
G1 X0.1 Y20 Z0.3 F5000.0 ; Move to start position
G1 X0.1 Y200.0 Z0.3 F1500.0 E15 ; Draw the first line
G1 X0.4 Y200.0 Z0.3 F5000.0 ; Move to side a little
G1 X0.4 Y20 Z0.3 F1500.0 E30 ; Draw the second line
G92 E0 ; Reset Extruder
G1 Z2.0 F3000 ; Move Z Axis up little to prevent scratching of Heat Bed
G1 X5 Y20 Z0.3 F5000.0 ; Move over to prevent blob squish
G92 E0
G92 E0
G1 F1500 E-1.4
;LAYER_COUNT:14
;LAYER:0
M107
G0 F6000 X62.997 Y36.232 Z0.28
G0 X61.501 Y42.3
;TYPE:SKIRT
G1 F1500 E0
G1 F1200 X61.511 Y41.598 E0.03269
G1 X61.564 Y40.662 E0.07635
G1 X61.697 Y39.734 E0.12
G1 X61.909 Y38.82 E0.16369
G1 X62.197 Y37.927 E0.20738
G1 X62.561 Y37.063 E0.25103
G1 X62.997 Y36.232 E0.29473
G1 X63.502 Y35.442 E0.33839
G1 X64.072 Y34.698 E0.38203
G1 X64.557 Y34.156 E0.4159
G1 X65.052 Y33.642 E0.44913
G1 X67.363 Y31.332 E0.60128
G1 X67.849 Y30.861 E0.63279
G1 X68.549 Y30.237 E0.67646
G1 X69.301 Y29.676 E0.72015
G1 X70.097 Y29.181 E0.76379
G1 X70.933 Y28.755 E0.80748
G1 X71.802 Y28.402 E0.85116
G1 X72.697 Y28.124 E0.8948
G1 X73.614 Y27.924 E0.9385
G1 X74.543 Y27.802 E0.98213
G1 X75.307 Y27.762 E1.01775
G1 X76.062 Y27.75 E1.05291
G1 X143.793 Y27.75 E4.20675
G1 X144.651 Y27.761 E4.24671
G1 X145.587 Y27.814 E4.29036
G1 X146.516 Y27.947 E4.33406
G1 X147.429 Y28.159 E4.37771
G1 X148.322 Y28.447 E4.4214
G1 X149.186 Y28.811 E4.46505
G1 X150.017 Y29.247 E4.50875
G1 X150.807 Y29.752 E4.55241
G1 X151.551 Y30.322 E4.59605
G1 X152.068 Y30.783 E4.62831
G1 X152.589 Y31.283 E4.66193
G1 X154.926 Y33.622 E4.81589
G1 X155.397 Y34.109 E4.84744
G1 X156.02 Y34.81 E4.89111
G1 X156.58 Y35.562 E4.93477
G1 X157.075 Y36.359 E4.97845
G1 X157.5 Y37.195 E5.02212
G1 X157.852 Y38.064 E5.06578
G1 X158.129 Y38.96 E5.10945
G1 X158.328 Y39.877 E5.15314
G1 X158.449 Y40.807 E5.19681
G1 X158.488 Y41.559 E5.23188
G1 X158.5 Y42.313 E5.26699
G1 X158.499 Y177.7 E11.57118
G1 X158.489 Y178.402 E11.60387
G1 X158.436 Y179.338 E11.64752
G1 X158.303 Y180.266 E11.69118
G1 X158.091 Y181.18 E11.73487
G1 X157.803 Y182.073 E11.77856
G1 X157.439 Y182.937 E11.82221
G1 X157.003 Y183.768 E11.86591
G1 X156.498 Y184.558 E11.90957
G1 X155.928 Y185.302 E11.95321
G1 X155.443 Y185.844 E11.98708
G1 X154.946 Y186.36 E12.02044
G1 X152.646 Y188.658 E12.17183
G1 X152.152 Y189.137 E12.20387
G1 X151.452 Y189.761 E12.24754
G1 X150.701 Y190.322 E12.29119
G1 X149.904 Y190.818 E12.3349
G1 X149.069 Y191.244 E12.37855
G1 X148.2 Y191.597 E12.42222
G1 X147.304 Y191.875 E12.46591
G1 X146.388 Y192.076 E12.50957
G1 X145.458 Y192.198 E12.55325
G1 X144.692 Y192.238 E12.58897
G1 X143.938 Y192.25 E12.62408
G1 X76.05 Y192.249 E15.78523
G1 X75.349 Y192.239 E15.81787
G1 X74.413 Y192.186 E15.86153
G1 X73.484 Y192.053 E15.90523
G1 X72.571 Y191.841 E15.94887
G1 X71.678 Y191.553 E15.99256
G1 X70.814 Y191.189 E16.03622
G1 X69.983 Y190.753 E16.07992
G1 X69.193 Y190.248 E16.12357
G1 X68.449 Y189.678 E16.16722
G1 X67.913 Y189.199 E16.20069
G1 X67.38 Y188.686 E16.23514
G1 X65.082 Y186.386 E16.38653
G1 X64.611 Y185.9 E16.41804
G1 X63.987 Y185.2 E16.46171
G1 X63.426 Y184.448 E16.5054
G1 X62.931 Y183.652 E16.54904
G1 X62.505 Y182.816 E16.59273
G1 X62.152 Y181.947 E16.63641
G1 X61.874 Y181.052 E16.68005
G1 X61.674 Y180.135 E16.72375
G1 X61.552 Y179.206 E16.76738
G1 X61.512 Y178.442 E16.803
G1 X61.5 Y177.688 E16.83812
G1 X61.501 Y42.3 E23.14235
G0 F6000 X61.901 Y42.306
G1 F1200 X61.911 Y41.604 E23.17504
G1 X61.964 Y40.685 E23.21791
G1 X62.097 Y39.774 E23.26077
G1 X62.308 Y38.878 E23.30364
G1 X62.596 Y38.003 E23.34653
G1 X62.959 Y37.157 E23.3894
G1 X63.394 Y36.346 E23.43225
G1 X63.898 Y35.575 E23.47514
G1 X64.466 Y34.851 E23.51799
G1 X64.846 Y34.432 E23.54433
G1 X65.335 Y33.924 E23.57716
G1 X67.641 Y31.619 E23.72898
G1 X68.127 Y31.148 E23.7605
G1 X68.815 Y30.537 E23.80334
G1 X69.554 Y29.987 E23.84624
G1 X70.338 Y29.504 E23.88912
G1 X71.16 Y29.091 E23.93195
G1 X72.016 Y28.75 E23.97486
G1 X72.898 Y28.485 E24.01774
G1 X73.799 Y28.298 E24.06059
G1 X74.713 Y28.19 E24.10345
G1 X75.314 Y28.162 E24.13146
G1 X76.062 Y28.15 E24.1663
G1 X143.793 Y28.15 E27.32013
G1 X144.645 Y28.161 E27.35981
G1 X145.564 Y28.214 E27.40267
G1 X146.475 Y28.347 E27.44554
G1 X147.371 Y28.558 E27.48841
G1 X148.246 Y28.846 E27.5313
G1 X149.092 Y29.209 E27.57417
G1 X149.903 Y29.644 E27.61702
G1 X150.674 Y30.148 E27.65991
G1 X151.398 Y30.717 E27.70279
G1 X151.793 Y31.073 E27.72755
G1 X152.306 Y31.566 E27.76068
G1 X154.638 Y33.9 E27.91431
G1 X155.109 Y34.387 E27.94586
G1 X155.72 Y35.076 E27.98874
G1 X156.269 Y35.815 E28.03161
G1 X156.751 Y36.599 E28.07446
G1 X157.164 Y37.422 E28.11734
G1 X157.503 Y38.278 E28.16021
G1 X157.767 Y39.16 E28.20308
G1 X157.954 Y40.062 E28.24597
G1 X158.061 Y40.976 E28.28882
G1 X158.088 Y41.566 E28.31632
G1 X158.1 Y42.313 E28.35111
G1 X158.099 Y177.694 E34.65502
G1 X158.089 Y178.396 E34.68771
G1 X158.036 Y179.315 E34.73057
G1 X157.903 Y180.226 E34.77344
G1 X157.692 Y181.122 E34.81631
G1 X157.404 Y181.997 E34.8592
G1 X157.041 Y182.843 E34.90207
G1 X156.606 Y183.654 E34.94492
G1 X156.102 Y184.425 E34.98781
G1 X155.534 Y185.149 E35.03066
G1 X155.154 Y185.568 E35.057
G1 X154.663 Y186.077 E35.08993
G1 X152.368 Y188.371 E35.24103
G1 X151.874 Y188.85 E35.27307
G1 X151.186 Y189.462 E35.31594
G1 X150.447 Y190.011 E35.35881
G1 X149.664 Y190.495 E35.40167
G1 X148.841 Y190.908 E35.44455
G1 X147.986 Y191.249 E35.48741
G1 X147.104 Y191.514 E35.5303
G1 X146.203 Y191.702 E35.57315
G1 X145.289 Y191.81 E35.61601
G1 X144.685 Y191.838 E35.64417
G1 X143.938 Y191.85 E35.67895
G1 X76.056 Y191.849 E38.83982
G1 X75.355 Y191.839 E38.87247
G1 X74.436 Y191.786 E38.91533
G1 X73.525 Y191.653 E38.9582
G1 X72.629 Y191.442 E39.00106
G1 X71.754 Y191.154 E39.04396
G1 X70.908 Y190.791 E39.08682
G1 X70.097 Y190.356 E39.12968
G1 X69.326 Y189.852 E39.17257
G1 X68.602 Y189.283 E39.21545
G1 X68.189 Y188.91 E39.24136
G1 X67.663 Y188.403 E39.27538
G1 X65.369 Y186.108 E39.42647
G1 X64.898 Y185.622 E39.45799
G1 X64.287 Y184.934 E39.50083
G1 X63.737 Y184.195 E39.54373
G1 X63.254 Y183.411 E39.58661
G1 X62.841 Y182.589 E39.62944
G1 X62.5 Y181.733 E39.67235
G1 X62.235 Y180.851 E39.71523
G1 X62.048 Y179.95 E39.75808
G1 X61.94 Y179.036 E39.80094
G1 X61.912 Y178.435 E39.82895
G1 X61.9 Y177.688 E39.86374
G1 X61.901 Y42.306 E46.16769
G0 F6000 X62.301 Y42.312
G1 F1200 X62.311 Y41.61 E46.20038
G1 X62.364 Y40.708 E46.24246
G1 X62.496 Y39.815 E46.28449
G1 X62.707 Y38.937 E46.32654
G1 X62.995 Y38.081 E46.36859
G1 X63.357 Y37.253 E46.41067
G1 X63.791 Y36.461 E46.45272
G1 X64.294 Y35.711 E46.49477
G1 X65.135 Y34.709 E46.55569
G1 X65.618 Y34.207 E46.58813
G1 X67.919 Y31.906 E46.73965
G1 X68.405 Y31.435 E46.77116
G1 X69.081 Y30.836 E46.81322
G1 X69.807 Y30.299 E46.85527
G1 X70.578 Y29.828 E46.89734
G1 X71.387 Y29.428 E46.93936
G1 X72.229 Y29.1 E46.98144
G1 X73.096 Y28.848 E47.02348
G1 X73.982 Y28.674 E47.06553
G1 X75.321 Y28.562 E47.12809
G1 X76.062 Y28.55 E47.1626
G1 X143.793 Y28.55 E50.31644
G1 X144.639 Y28.561 E50.35584
G1 X145.541 Y28.614 E50.39791
G1 X146.434 Y28.746 E50.43994
G1 X147.313 Y28.957 E50.48204
G1 X148.169 Y29.245 E50.52409
G1 X148.996 Y29.607 E50.56613
G1 X149.788 Y30.041 E50.60818
G1 X150.538 Y30.544 E50.65023
G1 X151.517 Y31.363 E50.70967
G1 X152.023 Y31.849 E50.74233
G1 X154.351 Y34.178 E50.89567
G1 X154.822 Y34.665 E50.92722
G1 X155.42 Y35.341 E50.96924
G1 X155.957 Y36.068 E51.01133
G1 X156.427 Y36.839 E51.05337
G1 X156.827 Y37.649 E51.09544
G1 X157.153 Y38.491 E51.13748
G1 X157.404 Y39.358 E51.17951
G1 X157.577 Y40.245 E51.22159
G1 X157.688 Y41.573 E51.28365
G1 X157.7 Y42.313 E51.31811
G1 X157.699 Y177.688 E57.62173
G1 X157.689 Y178.39 E57.65443
G1 X157.636 Y179.292 E57.6965
G1 X157.504 Y180.185 E57.73853
G1 X157.293 Y181.063 E57.78058
G1 X157.005 Y181.919 E57.82264
G1 X156.643 Y182.747 E57.86471
G1 X156.209 Y183.539 E57.90677
G1 X155.706 Y184.289 E57.94882
G1 X154.865 Y185.291 E58.00973
G1 X154.38 Y185.794 E58.04227
G1 X152.089 Y188.084 E58.1931
G1 X151.595 Y188.563 E58.22514
G1 X150.92 Y189.162 E58.26716
G1 X150.194 Y189.699 E58.30921
G1 X149.423 Y190.17 E58.35128
G1 X148.614 Y190.571 E58.39333
G1 X147.773 Y190.899 E58.43536
G1 X146.905 Y191.151 E58.47745
G1 X146.019 Y191.325 E58.51949
G1 X144.678 Y191.438 E58.58215
G1 X143.938 Y191.45 E58.61661
G1 X76.062 Y191.449 E61.77721
G1 X75.361 Y191.439 E61.80985
G1 X74.459 Y191.386 E61.85192
G1 X73.566 Y191.254 E61.89396
G1 X72.687 Y191.043 E61.93605
G1 X71.831 Y190.755 E61.9781
G1 X71.004 Y190.393 E62.02014
G1 X70.212 Y189.959 E62.06219
G1 X69.462 Y189.456 E62.10424
G1 X68.465 Y188.62 E62.16483
G1 X67.946 Y188.12 E62.19839
G1 X65.656 Y185.83 E62.34919
G1 X65.185 Y185.344 E62.3807
G1 X64.586 Y184.668 E62.42276
G1 X64.049 Y183.942 E62.46481
G1 X63.578 Y183.171 E62.50688
G1 X63.178 Y182.362 E62.5489
G1 X62.85 Y181.52 E62.59098
G1 X62.598 Y180.653 E62.63302
G1 X62.424 Y179.767 E62.67506
G1 X62.312 Y178.428 E62.73763
G1 X62.3 Y177.688 E62.77209
G1 X62.301 Y42.312 E69.07577
G1 F1500 E67.67577
;MESH:ServoPlateI2C.stl
G0 F6000 X75.547 Y46.907
G0 X77.291 Y48.959
G0 X79 Y49.667
G0 X79.323 Y49.601
G1 F1500 E69.07577
G0 F6000 X79.052 Y48.945
;TYPE:WALL-OUTER
G1 F1200 X78.923 Y48.936 E69.08179
G1 X77.862 Y48.496 E69.13527
G1 X77.754 Y48.388 E69.14238
G1 X77.314 Y47.327 E69.19587
G1 X77.314 Y47.173 E69.20304
G1 X77.754 Y46.112 E69.25652
G1 X77.862 Y46.004 E69.26363
G1 X78.923 Y45.564 E69.31712
G1 X79.077 Y45.564 E69.32429
G1 X80.138 Y46.004 E69.37777
G1 X80.246 Y46.112 E69.38489
G1 X80.693 Y47.193 E69.43936
G1 X80.686 Y47.327 E69.4456
G1 X80.243 Y48.395 E69.49944
G1 X80.138 Y48.496 E69.50623
G1 X79.052 Y48.945 E69.56095
G0 F6000 X79.21 Y49.314
;TYPE:WALL-INNER
G1 F1200 X78.938 Y49.348 E69.57371
G1 X78.77 Y49.306 E69.58178
G1 X77.709 Y48.866 E69.63526
G1 X77.473 Y48.69 E69.64897
G1 X77.384 Y48.541 E69.65705
G1 X76.944 Y47.48 E69.71053
G1 X76.899 Y47.25 E69.72145
G1 X76.944 Y47.02 E69.73236
G1 X77.384 Y45.959 E69.78584
G1 X77.485 Y45.796 E69.79477
G1 X77.709 Y45.634 E69.80765
G1 X78.77 Y45.194 E69.86113
G1 X79.08 Y45.154 E69.87568
G1 X79.23 Y45.194 E69.88291
G1 X80.291 Y45.634 E69.9364
G1 X80.499 Y45.778 E69.94818
G1 X80.616 Y45.959 E69.95821
G1 X81.056 Y47.02 E70.0117
G1 X81.077 Y47.081 E70.0147
G1 X81.091 Y47.363 E70.02785
G1 X80.983 Y47.656 E70.04239
G1 X80.606 Y48.563 E70.08813
G1 X80.438 Y48.779 E70.10087
G1 X80.115 Y48.939 E70.11765
G1 X79.21 Y49.314 E70.16327
G0 F6000 X79.35 Y49.689
G1 F1200 X79.09 Y49.748 E70.17568
G1 X78.762 Y49.723 E70.191
G1 X78.616 Y49.675 E70.19816
G1 X77.555 Y49.235 E70.25164
G1 X77.353 Y49.122 E70.26242
G1 X77.162 Y48.943 E70.27461
G1 X77.015 Y48.695 E70.28803
G1 X76.575 Y47.633 E70.34156
G1 X76.499 Y47.25 E70.35974
G1 X76.575 Y46.867 E70.37792
G1 X77.015 Y45.805 E70.43145
G1 X77.183 Y45.534 E70.4463
G1 X77.399 Y45.346 E70.45963
G1 X77.555 Y45.265 E70.46782
G1 X78.616 Y44.825 E70.5213
G1 X78.867 Y44.757 E70.53341
G1 X79.133 Y44.757 E70.54579
G1 X79.384 Y44.825 E70.5579
G1 X80.445 Y45.265 E70.61139
G1 X80.791 Y45.505 E70.631
G1 X80.985 Y45.805 E70.64763
G1 X81.425 Y46.866 E70.70112
G1 X81.461 Y46.968 E70.70615
G1 X81.501 Y47.28 E70.7208
G1 X81.461 Y47.531 E70.73263
G1 X81.352 Y47.81 E70.74658
G1 X80.969 Y48.731 E70.79303
G1 X80.814 Y48.97 E70.80629
G1 X80.604 Y49.152 E70.81923
G1 X80.268 Y49.308 E70.83648
G1 X79.35 Y49.689 E70.88276
G0 F6000 X79.49 Y50.064
G1 F1200 X79.236 Y50.132 E70.89501
G1 X78.856 Y50.144 E70.91271
G1 X78.463 Y50.045 E70.93158
G1 X77.402 Y49.605 E70.98507
G1 X77.119 Y49.447 E71.00016
G1 X76.852 Y49.195 E71.01725
G1 X76.645 Y48.848 E71.03607
G1 X76.205 Y47.787 E71.08955
G1 X76.119 Y47.492 E71.10386
G1 X76.119 Y47.008 E71.1264
G1 X76.205 Y46.713 E71.14071
G1 X76.645 Y45.652 E71.19419
G1 X76.88 Y45.272 E71.215
G1 X77.183 Y45.01 E71.23365
G1 X77.402 Y44.895 E71.24517
G1 X78.463 Y44.455 E71.29865
G1 X78.758 Y44.369 E71.31296
G1 X79.186 Y44.36 E71.33289
G1 X79.537 Y44.455 E71.34982
G1 X80.598 Y44.895 E71.40331
G1 X80.867 Y45.043 E71.4176
G1 X81.083 Y45.231 E71.43094
G1 X81.245 Y45.44 E71.44325
G1 X81.355 Y45.652 E71.45437
G1 X81.795 Y46.713 E71.50786
G1 X81.845 Y46.856 E71.51491
G1 X81.896 Y47.12 E71.52743
G1 X81.894 Y47.395 E71.54024
G1 X81.845 Y47.644 E71.55205
G1 X81.722 Y47.963 E71.56797
G1 X81.355 Y48.848 E71.61259
G1 X81.207 Y49.116 E71.62684
G1 X81.032 Y49.321 E71.63939
G1 X80.82 Y49.488 E71.65196
G1 X80.598 Y49.605 E71.66364
G1 X79.49 Y50.064 E71.71949
G0 F6000 X79.629 Y50.438
G1 F1200 X79.304 Y50.526 E71.73517
G1 X79.036 Y50.551 E71.7477
G1 X78.572 Y50.5 E71.76944
G1 X78.31 Y50.414 E71.78228
G1 X77.249 Y49.975 E71.83574
G1 X76.885 Y49.771 E71.85517
G1 X76.542 Y49.447 E71.87714
G1 X76.275 Y49.001 E71.90135
G1 X75.836 Y47.94 E71.95481
G1 X75.725 Y47.561 E71.9732
G1 X75.699 Y47.25 E71.98774
G1 X75.725 Y46.939 E72.00227
G1 X75.836 Y46.56 E72.02066
G1 X76.275 Y45.499 E72.07412
G1 X76.578 Y45.01 E72.10091
G1 X76.967 Y44.673 E72.12488
G1 X77.249 Y44.526 E72.13968
G1 X78.31 Y44.086 E72.19317
G1 X78.689 Y43.975 E72.21156
G1 X79 Y43.949 E72.22609
G1 X79.311 Y43.975 E72.24062
G1 X79.69 Y44.086 E72.25901
G1 X80.751 Y44.525 E72.31248
G1 X81.097 Y44.716 E72.33088
G1 X81.375 Y44.958 E72.34804
G1 X81.583 Y45.226 E72.36384
G1 X81.724 Y45.499 E72.37815
G1 X82.164 Y46.56 E72.43163
G1 X82.229 Y46.744 E72.44072
G1 X82.294 Y47.083 E72.45679
G1 X82.292 Y47.436 E72.47323
G1 X82.229 Y47.756 E72.48841
G1 X82.091 Y48.116 E72.50637
G1 X81.725 Y49.001 E72.55096
G1 X81.534 Y49.346 E72.56932
G1 X81.309 Y49.61 E72.58548
G1 X81.037 Y49.825 E72.60162
G1 X80.751 Y49.975 E72.61666
G1 X79.629 Y50.438 E72.67318
G1 F1500 E71.27318
G0 F6000 X80.644 Y50.214
G0 X84.568 Y53.549
G0 X84.833 Y55.75
G0 X85.541 Y57.459
G0 X87.25 Y58.167
G0 X87.576 Y58.1
G1 F1500 E72.67318
G0 F6000 X87.305 Y57.444
;TYPE:WALL-OUTER
G1 F1200 X87.173 Y57.436 E72.67933
G1 X86.097 Y56.989 E72.73359
G1 X86.004 Y56.888 E72.73998
G1 X85.556 Y55.806 E72.79451
G1 X85.564 Y55.673 E72.80072
G1 X86.007 Y54.605 E72.85456
G1 X86.05 Y54.544 E72.85803
G1 X86.288 Y54.431 E72.8703
G1 X87.18 Y54.061 E72.91527
G1 X87.327 Y54.064 E72.92211
G1 X88.394 Y54.506 E72.97589
G1 X88.496 Y54.612 E72.98274
G1 X88.939 Y55.679 E73.03654
G1 X88.936 Y55.827 E73.04343
G1 X88.485 Y56.912 E73.09814
G1 X88.388 Y56.996 E73.10412
G1 X87.305 Y57.444 E73.15869
G0 F6000 X87.457 Y57.815
;TYPE:WALL-INNER
G1 F1200 X87.177 Y57.847 E73.17181
G1 X87.02 Y57.806 E73.17937
G1 X85.959 Y57.366 E73.23285
G1 X85.736 Y57.206 E73.24563
G1 X85.634 Y57.041 E73.25467
G1 X85.194 Y55.98 E73.30815
G1 X85.149 Y55.716 E73.32062
G1 X85.267 Y55.344 E73.33879
G1 X85.644 Y54.437 E73.38453
G1 X85.773 Y54.256 E73.39488
G1 X85.959 Y54.134 E73.40524
G1 X87.04 Y53.686 E73.45972
G1 X87.294 Y53.65 E73.47167
G1 X87.48 Y53.694 E73.48057
G1 X88.559 Y54.142 E73.53497
G1 X88.784 Y54.318 E73.54827
G1 X88.866 Y54.459 E73.55587
G1 X89.313 Y55.538 E73.61025
G1 X89.35 Y55.795 E73.62234
G1 X89.306 Y55.98 E73.6312
G1 X88.851 Y57.074 E73.68637
G1 X88.687 Y57.28 E73.69863
G1 X88.541 Y57.366 E73.70652
G1 X87.457 Y57.815 E73.76115
G0 F6000 X87.595 Y58.19
G1 F1200 X87.35 Y58.247 E73.77287
G1 X87.067 Y58.235 E73.78606
G1 X86.866 Y58.175 E73.79582
G1 X85.805 Y57.735 E73.84931
G1 X85.578 Y57.604 E73.86151
G1 X85.37 Y57.387 E73.87551
G1 X85.265 Y57.195 E73.8857
G1 X84.825 Y56.134 E73.93918
G1 X84.75 Y55.808 E73.95476
G1 X84.769 Y55.545 E73.96704
G1 X84.898 Y55.19 E73.98462
G1 X85.281 Y54.269 E74.03107
G1 X85.436 Y54.03 E74.04433
G1 X85.496 Y53.967 E74.04839
G1 X85.805 Y53.765 E74.06558
G1 X86.9 Y53.311 E74.12077
G1 X87.182 Y53.251 E74.1342
G1 X87.435 Y53.266 E74.146
G1 X87.634 Y53.325 E74.15566
G1 X88.725 Y53.778 E74.21067
G1 X89.005 Y53.968 E74.22643
G1 X89.176 Y54.186 E74.23933
G1 X89.235 Y54.305 E74.24551
G1 X89.687 Y55.397 E74.30054
G1 X89.748 Y55.67 E74.31357
G1 X89.733 Y55.944 E74.32635
G1 X89.675 Y56.134 E74.3356
